!!!!SEGMENT: pl-sa--1-a-i-1--002_dittersdorf-carl-ditters-von--symphonia-ex-c-andante.krn
!!!cenid: 17xx:575
!!!COM: Dittersdorf, Carl Ditters von
!!!COM-rismID: pe14522
!!!CDT: 1739/11/02-1799/10/24
!!!CNT: Austrian
!!!OPR: Symphonia ex C
!!!OTL: Andante
!!!OMV: 002
!!!PDT:
!!!AGN: Secular
!!!SMS-siglum: PL-SA
!!!SMS-shelfmark: 1/A I 1
!!!SMS-shelfwork: 001-002 M
!!!SMS-variant:
!!!SMS-altvar:
!!!NIFC-rismSourceID: 1001034975
!!!NIFC-islandoraID:
!!!URL-pdf-islandora:
!!!URL-scan: https://bc.bdsandomierz.pl/dlibra/publication/1268/edition/1236/content @EN{Scan on Cyfrowa Biblioteka Diecezjalna w Sandomierzu} @PL{Skany w portalu Cyfrowa Biblioteka Diecezjalna w Sandomierzu}
!!!ONB-nifc: UWAGA: części Symphonii: Allegro assai, Andante, Menuetto, Presto
!!!AIN: 3 empty 2 oboe 1 viola 2 violn
!!!key:
**kern	**dynam	**kern	**kern	**dynam	**kern	**kern	**kern	**kern	**kern
*part8	*part8	*part7	*part6	*part6	*part5	*part4	*part3	*part2	*part1
*staff8	*	*staff7	*staff6	*	*staff5	*staff4	*staff3	*staff2	*staff1
*group4	*	*group3	*group3	*	*group3	*group2	*group2	*group1	*group1
*Iempty	*	*Iviola	*Ivioln	*	*Ivioln	*Iempty	*Iempty	*Ioboe	*Ioboe
*I"Baſso	*	*I"Viola	*I"Violino 2do	*	*I"Violino Imo	*I"Cornu 2do	*I"Cornu Imo	*I"Oboe 2do	*I"Oboe Imo
*I'B.	*	*I'V-la	*I'V-no II	*	*I'V-no I	*I'C.II	*I'C. I	*I'Ob. II	*I'Ob. I
*clefF4	*	*clefC3	*clefG2	*	*clefG2	*clefG2	*clefG2	*clefG2	*clefG2
*Trd0c0	*	*	*	*	*	*Trd0c0	*Trd0c0	*	*
*k[b-]	*	*k[b-]	*k[b-]	*	*k[b-]	*k[b-]	*k[b-]	*k[b-]	*k[b-]
*F:	*	*F:	*F:	*	*F:	*F:	*F:	*F:	*F:
*M2/4	*	*M2/4	*M2/4	*	*M2/4	*M2/4	*M2/4	*M2/4	*M2/4
*>[AABB]	*>[AABB]	*>[AABB]	*>[AABB]	*>[AABB]	*>[AABB]	*>[AABB]	*>[AABB]	*>[AABB]	*>[AABB]
=1	=1	=1	=1	=1	=1	=1	=1	=1	=1
*>A	*>A	*>A	*>A	*>A	*>A	*>A	*>A	*>A	*>A
!LO:TX:a:t=Andante	!	!LO:TX:a:t=Andante	!	!	!LO:TX:a:t=Andante	!LO:TX:a:t=Andante	!LO:TX:a:t=Andante	!LO:TX:a:t=Andante	!LO:TX:a:t=Andante
!	!	!	!	!LO:DY:t=pi	!	!LO:N:vis=00	!LO:N:vis=00	!LO:N:vis=00	!LO:N:vis=00
8r	.	8r	16cc\LL	p	16cc\LL	0r	0r	0r	0r
.	.	.	16a\J	.	16a\J	.	.	.	.
!	!LO:DY:t=pia	!	!	!	!	!	!	!	!
8F\L	p	8f\L	8f\J	.	8f\J	.	.	.	.
8A\	.	8f\	8r	.	8r	.	.	.	.
8B-\J	.	8f\J	8dd\	.	8dd\	.	.	.	.
=2	=2	=2	=2	=2	=2	=2	=2	=2	=2
*	*	*2\right	*	*	*	*	*	*	*
*	*	*tremolo	*	*	*	*	*	*	*
4A\	.	8f\L	16cc\LL	.	16cc\LL	.	.	.	.
.	.	.	16a\J	.	16a\J	.	.	.	.
.	.	8f	8f\J	.	8f\J	.	.	.	.
8A\L	.	8f	8r	.	8r	.	.	.	.
8B-\J	.	8fJ	8dd\	.	8dd\	.	.	.	.
=3	=3	=3	=3	=3	=3	=3	=3	=3	=3
8A\L	.	8f\L	8cc\L	.	8cc\L	.	.	.	.
8B-\	.	8f	16ff\L	.	16ff\L	.	.	.	.
.	.	.	16dd\JJ	.	16dd\JJ	.	.	.	.
8A\	.	8f	8cc\L	.	8cc\L	.	.	.	.
8B-\J	.	8fJ	16ff\L	.	16ff\L	.	.	.	.
.	.	.	16dd\JJ	.	16dd\JJ	.	.	.	.
*	*	*Xtremolo	*	*	*	*	*	*	*
=4	=4	=4	=4	=4	=4	=4	=4	=4	=4
8A\L	.	8f\	8cc\	.	16cc\LL	.	.	.	.
.	.	.	.	.	16a\J	.	.	.	.
16A\L	.	8r	8r	.	8f\J	.	.	.	.
16G\JJ	.	.	.	.	.	.	.	.	.
8A\	.	8A/	16ffT\LL	.	8r	.	.	.	.
.	.	.	32ee\L	.	.	.	.	.	.
.	.	.	32ff\JJJ	.	.	.	.	.	.
8r	.	8r	8r	.	16aat\LL	.	.	.	.
.	.	.	.	.	32gg\L	.	.	.	.
.	.	.	.	.	32aa\JJJ	.	.	.	.
=5	=5	=5	=5	=5	=5	=5	=5	=5	=5
!	!	!	!	!	!	!LO:N:vis=00	!LO:N:vis=00	!LO:N:vis=00	!LO:N:vis=00
8B-\	.	8B-/	16ddT\LL	.	8r	0r	0r	0r	0r
.	.	.	32cc\L	.	.	.	.	.	.
.	.	.	32dd\JJJ	.	.	.	.	.	.
8r	.	8r	8r	.	16ffT\LL	.	.	.	.
.	.	.	.	.	32ee\L	.	.	.	.
.	.	.	.	.	32ff\JJJ	.	.	.	.
8c\	.	8c/	16eet\LL	.	8r	.	.	.	.
.	.	.	32dd\L	.	.	.	.	.	.
.	.	.	32ee\JJJ	.	.	.	.	.	.
8r	.	8r	8r	.	16ggT\LL	.	.	.	.
.	.	.	.	.	32ff\L	.	.	.	.
.	.	.	.	.	32gg\JJJ	.	.	.	.
!LO:LB:g=original	!	!	!	!	!	!	!	!	!
=6	=6	=6	=6	=6	=6	=6	=6	=6	=6
8d\	.	8d/	16ffT\LL	.	8r	.	.	.	.
.	.	.	32ee\L	.	.	.	.	.	.
.	.	.	32ff\JJJ	.	.	.	.	.	.
8r	.	8r	8r	.	16aat\LL	.	.	.	.
.	.	.	.	.	32gg\L	.	.	.	.
.	.	.	.	.	32aa\JJJ	.	.	.	.
8A\	.	8A/	16ccT\LL	.	8r	.	.	.	.
.	.	.	32b-\L	.	.	.	.	.	.
.	.	.	32cc\JJJ	.	.	.	.	.	.
8r	.	8r	8r	.	16ffT\LL	.	.	.	.
.	.	.	.	.	32ee\L	.	.	.	.
.	.	.	.	.	32ff\JJJ	.	.	.	.
!	!	!LO:LB:g=original	!	!	!	!	!	!	!
=7	=7	=7	=7	=7	=7	=7	=7	=7	=7
8B-\	.	8B-/	16dd\LL	.	8r	.	.	.	.
.	.	.	32cc\L	.	.	.	.	.	.
.	.	.	32dd\JJJ	.	.	.	.	.	.
8r	.	8r	8r	.	16ff\LL	.	.	.	.
.	.	.	.	.	32ee\L	.	.	.	.
.	.	.	.	.	32ff\JJJ	.	.	.	.
8c\	.	8c/	16ee\LL	.	8r	.	.	.	.
.	.	.	32dd\L	.	.	.	.	.	.
.	.	.	32ee\JJJ	.	.	.	.	.	.
8r	.	8r	8r	.	16gg\LL	.	.	.	.
.	.	.	.	.	32ff\L	.	.	.	.
.	.	.	.	.	32gg\JJJ	.	.	.	.
=8	=8	=8	=8	=8	=8	=8	=8	=8	=8
!	!	!	!LO:TX:a:t=problem:mixed beam	!	!LO:TX:a:t=problem:mixed beam	!	!	!	!
8r	.	8r	8ff\L	.	8aa\L	.	.	.	.
8F\	.	8c/	8f/J	.	8f/J	.	.	.	.
4F\	.	4c/	8r	.	8r	.	.	.	.
!	!	!	!LO:LB:g=original	!	!	!	!	!	!
.	.	.	16aa\LL	.	16aa\LL	.	.	.	.
.	.	.	16ff\JJ	.	16ff\JJ	.	.	.	.
=9	=9	=9	=9	=9	=9	=9	=9	=9	=9
!	!	!	!	!	!	!LO:N:vis=0	!LO:N:vis=0	!LO:N:vis=0	!LO:N:vis=0
8r	.	8r	16gg\LL	.	16gg\LL	1r	1r	1r	1r
.	.	.	16ee\J	.	16ee\J	.	.	.	.
16E\LL	.	16e\LL	8cc\J	.	8cc\J	.	.	.	.
16D\JJ	.	16d\JJ	.	.	.	.	.	.	.
8E\L	.	8e\L	8r	.	8r	.	.	.	.
8C\J	.	8c\J	16gg\LL	.	16gg\LL	.	.	.	.
.	.	.	16ee\JJ	.	16ee\JJ	.	.	.	.
!	!	!	!	!	!LO:LB:g=original	!	!	!	!
=10	=10	=10	=10	=10	=10	=10	=10	=10	=10
8r	.	8r	16ff\LL	.	16ff\LL	.	.	.	.
.	.	.	16dd\J	.	16dd\J	.	.	.	.
!LO:TX:a:t=problem:mixed beam	!	!LO:TX:a:t=problem:mixed beam	!	!	!	!	!	!	!
8D\L	.	8d\L	8bn\J	.	8bn\J	.	.	.	.
8G\	.	8g\	8r	.	8r	.	.	.	.
8GG/J	.	8G/J	16ff\LL	.	16ff\LL	.	.	.	.
.	.	.	16dd\JJ	.	16dd\JJ	.	.	.	.
=11	=11	=11	=11	=11	=11	=11	=11	=11	=11
4C/	.	4c/	8cc\	.	8ee-X\	2r	2r	2r	2r
.	.	.	4cc\	.	4ee-\	.	.	.	.
4F#X\	.	4f#X\	.	.	.	.	.	.	.
.	.	.	16bn/LL	.	16dd\LL	.	.	.	.
.	.	.	16a/JJ	.	16cc\JJ	.	.	.	.
=12	=12	=12	=12	=12	=12	=12	=12	=12	=12
!	!	!	!	!	!	!LO:TX:a:t=Solo	!LO:TX:a:t=Solo:	!	!
.	.	.	.	.	8qqcc/	.	.	.	.
8r	.	16g\LL	4g/	.	4bn\	4r	4r	4r	4r
.	.	16g\	.	.	.	.	.	.	.
8G\	.	16g\	.	.	.	.	.	.	.
.	.	16g\JJ	.	.	.	.	.	.	.
*	*	*tremolo	*	*	*	*	*	*	*
4GG/	.	16g\L	8r	.	8r	8r	8r	8r	8r
.	.	16g\	.	.	.	.	.	.	.
!	!	!	!	!	!	!	!	!LO:TX:a:t=Solo	!
.	.	16g\	8G/	.	8G/	8g/	8g/	8g/	8g/
.	.	16g\J	.	.	.	.	.	.	.
=13	=13	=13	=13	=13	=13	=13	=13	=13	=13
!	!	!	!	!	!	!	!	!	!LO:TX:a:t=Solo
4C/	.	16g\L	8.c/L	.	8.c/L	8.e/L	8.cc\L	8.e/L	8.cc\L
.	.	16g\	.	.	.	.	.	.	.
.	.	16g\	.	.	.	.	.	.	.
.	.	16g\J	16Bn/Jk	.	16d/K	16g/Jk	16dd\K	16g/Jk	16dd\K
4r	.	16g\L	8c/L	.	8e/	8cc\L	8ee\	8cc\L	8ee\
.	.	16g\	.	.	.	.	.	.	.
.	.	16g\	8c/J	.	8e/J	8cc\J	8ee\J	8cc\J	8ee\J
.	.	16g\J	.	.	.	.	.	.	.
!LO:LB:g=original	!	!	!	!	!	!	!	!	!
=14	=14	=14	=14	=14	=14	=14	=14	=14	=14
8r	.	16g\L	4c/	.	4e/	4cc\	4ee\	4cc\	4ee\
.	.	16g\	.	.	.	.	.	.	.
8G\	.	16g\	.	.	.	.	.	.	.
.	.	16g\	.	.	.	.	.	.	.
!	!	!	!	!	!	!	!	!	!LO:TX:a:t=problem:mixed beam
4GG/	.	16g\	8Bn/L	.	8d/L	8g/	8dd\	8bn\L	8dd\L
.	.	16g\	.	.	.	.	.	.	.
.	.	16g\	8G/J	.	8G/J	8r	8r	8g\J	8g/J
.	.	16g\J	.	.	.	.	.	.	.
!	!	!LO:LB:g=original	!	!	!	!	!	!	!
=15	=15	=15	=15	=15	=15	=15	=15	=15	=15
4G\	.	16g\L	8.Bn/L	.	8.d/L	8.g/L	8.dd\L	8.bn\L	8.ee\L
.	.	16g\	.	.	.	.	.	.	.
.	.	16g\	.	.	.	.	.	.	.
.	.	16g\	16c/K	.	16e/K	16cc/Jk	16ee\K	16cc\K	16ff\K
4r	.	16g\	8d/	.	8f/	8dd\L	8ff\	8dd\	8gg\
.	.	16g\	.	.	.	.	.	.	.
.	.	16g\	8d/J	.	8f/J	8dd\J	8ff\J	8dd\J	8gg\J
.	.	16g\J	.	.	.	.	.	.	.
=16	=16	=16	=16	=16	=16	=16	=16	=16	=16
8r	.	16g\L	4d/	.	4f/	4dd\	4ff\	4dd\	4ff\
.	.	16g\	.	.	.	.	.	.	.
8c\	.	16g\	.	.	.	.	.	.	.
.	.	16g\J	.	.	.	.	.	.	.
!	!	!	!	!	!	!	!	!	!LO:TX:a:t=problem:mixed beam
4C/	.	8g\	8c/L	.	8e/L	8cc\	8ee\	8cc\L	8ee\L
.	.	8r	8G/J	.	8c/J	8r	8r	8g\J	8g/J
=17	=17	=17	=17	=17	=17	=17	=17	=17	=17
4C/	.	16c/L	8.c/L	.	8.e/L	8.cc\L	8.ee\L	8.cc\L	8.ee\L
.	.	16c/	.	.	.	.	.	.	.
.	.	16c/	.	.	.	.	.	.	.
.	.	16c/J	16d/K	.	16f/K	16dd\K	16ff\K	16dd\K	16ff\K
4r	.	8c/	8e/	.	8g/	8ee\	8gg\	8ee\	8gg\
.	.	8r	8e/J	.	8g/J	8ee\J	8gg\J	8ee\J	8gg\J
!	!	!	!	!	!	!	!	!LO:LB:g=original	!LO:LB:g=original
*	*	*Xtremolo	*	*	*	*	*	*	*
=18	=18	=18	=18	=18	=18	=18	=18	=18	=18
8r	.	4c/	4e/	.	4g/	4ee\	4gg\	4ee\	4gg\
8c\	.	.	.	.	.	.	.	.	.
4C/	.	4r	16a/LL	.	16cc/LL	4r	4r	16aa\LL	16ccc\LL
!	!	!	!	!	!	!	!	!	!LO:TX:a:t=problem:kasownik
.	.	.	16g/	.	16b-/	.	.	16gg\	16bb-X\
.	.	.	16f/	.	16a/	.	.	16ff\	16aa\
.	.	.	16e/JJ	.	16g/JJ	.	.	16ee\JJ	16gg\JJ
!	!	!	!LO:LB:g=original	!	!	!	!	!	!
=19	=19	=19	=19	=19	=19	=19	=19	=19	=19
.	.	.	8qqe/	.	8qqg/	.	.	8qqee/	8qqgg/
4F\	.	4F/	8d/	.	8f/	8dd\	8ff\	8dd\	8ff\
.	.	.	4c/	.	4e/	4cc\	4ee\	4cc\	4ee\
4G\	.	4G/	.	.	.	.	.	.	.
!	!	!	!	!	!	!	!	!LO:TX:a:t=sic!:s=8b	!
.	.	.	8Bn/	.	8d/	8g/	8dd\	8b-\	8dd\
=20	=20	=20	=20	=20	=20	=20	=20	=20	=20
*	*	*	*	*	*Xtuplet	*	*	*	*
4C/	.	4c/	8c/L	.	8e/L	4e/	4cc\	4cc\	4ee\
!	!	!	!LO:TX:a:t=problem:klamra łukowa, kropka	!	!	!	!	!	!
!	!	!	!LO:TUP:b	!	!	!	!	!	!
.	.	.	24c/L	.	24e/L	.	.	.	.
.	.	.	24d/	.	24f/	.	.	.	.
.	.	.	24e/JJ	.	24g/JJ	.	.	.	.
*	*	*	*Xtuplet	*	*	*	*	*	*
4r	.	4r	24f/LL	.	24a/LL	4r	4r	4r	4r
.	.	.	24g/	.	24b-/	.	.	.	.
.	.	.	24a/JJ	.	24cc/JJ	.	.	.	.
.	.	.	24bn'\LL	.	24dd\LL	.	.	.	.
.	.	.	24cc'\	.	24ee\	.	.	.	.
.	.	.	24dd'\JJ	.	24ff\JJ	.	.	.	.
!	!	!	!	!	!LO:LB:g=original	!	!	!	!
=21	=21	=21	=21	=21	=21	=21	=21	=21	=21
!	!	!	!LO:TX:a:t=problem:mixed beam	!	!LO:TX:a:t=problem:mixed beam	!	!	!	!LO:N:vis=16
2r	.	2r	8ee\L	.	8gg\L	4r	4r	8r	8r
.	.	.	8f/	.	8f/	.	.	16ff\LL	16aa\LL
.	.	.	.	.	.	.	.	16dd\JJ	16ff\JJ
.	.	.	8g/	.	8g/	8cc/L	8ee\L	8cc\L	8ee\L
.	.	.	8G/J	.	8G/J	8g/J	8dd\J	8bn\J	8dd\J
!	!	!	!	!	!	!LO:LB:g=original	!LO:LB:g=original	!	!
=22	=22	=22	=22	=22	=22	=22	=22	=22	=22
*	*	*	*tuplet	*	*	*	*	*	*
4C/	.	4c/	8c/L	.	8e/L	4e/	4cc\	4cc\	4ee\
!	!	!	!LO:TX:a:t=problem:klamra łukowa, kropka	!	!	!	!	!	!
!	!	!	!LO:TUP:b	!	!	!	!	!	!
.	.	.	24c/L	.	24e/L	.	.	.	.
.	.	.	24d/	.	24f/	.	.	.	.
.	.	.	24e/JJ	.	24g/JJ	.	.	.	.
*	*	*	*Xtuplet	*	*	*	*	*	*
4r	.	4r	24f/LL	.	24a\LL	4r	4r	4r	4r
.	.	.	24g/	.	24b-\	.	.	.	.
.	.	.	24a/JJ	.	24cc\JJ	.	.	.	.
.	.	.	24bn'\LL	.	24dd\LL	.	.	.	.
.	.	.	24cc'\	.	24ee\	.	.	.	.
.	.	.	24dd'\JJ	.	24ff\JJ	.	.	.	.
=23	=23	=23	=23	=23	=23	=23	=23	=23	=23
!	!	!	!LO:TX:a:t=problem:mixed beam	!	!	!	!	!	!
8r	.	8r	8ee\L	.	8gg\L	8r	8r	16r	16r
.	.	.	.	.	.	.	.	16aa\LL	(16ccc\LL
*	*	*	*	*	*tuplet	*	*	*	*
!LO:TX:a:t=problem:mixed beam	!	!	!LO:TX:a:t=problem:brak oznaczenia trioli, \nale wynika to z kontekstu	!	!LO:TUP:a	!	!	!	!
8F\L	.	8F/L	24a/L	.	(24cc\L	16r	16r	16ff\	16aa\
.	.	.	24f/	.	24a\	.	.	.	.
.	.	.	.	.	.	16dd\	16ff\	16dd\JJ	16ff\JJ)
.	.	.	24d/JJ	.	24f\JJ)	.	.	.	.
8G\	.	8G/	8c/L	.	8e/L	8cc/L	8ee\L	8cc\L	8ee\L
8GG/J	.	8G/J	8Bn/J	.	8d/J	8g/J	8dd\J	8bn\J	8dd\J
!LO:LB:g=original	!	!LO:LB:g=original	!	!	!	!	!	!	!
=24	=24	=24	=24	=24	=24	=24	=24	=24	=24
!LO:TX:a:t=problem:mixed beam	!	!	!LO:TX:a:t=sic!:s=4b	!	!	!	!	!LO:TX:a:t=sic!:s=4b	!
8C/L	.	4G/	4B-/	.	4d/	4g/	4dd\	4b-\	4dd\
8c\	.	.	.	.	.	.	.	.	.
!	!	!LO:TX:a:t=problem:podwójna kreska taktowa \nz obustronną grubaśną repetycją	!	!	!	!LO:N:vis=16	!	!	!
8C/J	.	4r	8c/	.	8e/	8e/	8cc\	8cc\	8cc\
.	.	.	.	.	.	.	.	.	.
!LO:TX:a:t=problem:podwójna kreska taktowa \nz obustronną grubaśną repetycją	!	!	!LO:TX:a:t=problem:podwójna kreska taktowa \nz obustronną grubaśną repetycją	!	!LO:TX:a:t=problem:podwójna kreska taktowa \nz obustronną grubaśną repetycją	!LO:TX:a:t=problem:podwójna kreska taktowa \nz obustronną grubaśną repetycją	!LO:TX:a:t=problem:podwójna kreska taktowa \nz obustronną grubaśną repetycją	!LO:TX:a:t=problem:podwójna kreska taktowa \nz obustronną grubaśną repetycją	!LO:TX:a:t=problem:podwójna kreska taktowa \nz obustronną grubaśną repetycją
8r	.	.	8r	.	8r	8r	8r	8r	8r
=25:|!|:	=25:|!|:	=25:|!|:	=25:|!|:	=25:|!|:	=25:|!|:	=25:|!|:	=25:|!|:	=25:|!|:	=25:|!|:
*>B	*>B	*>B	*>B	*>B	*>B	*>B	*>B	*>B	*
*	*	*	*	*	*	*	*2\right	*2\right	*2\right
8C/L	.	8c\L	16c/LL	.	8r	2c/	2cc\	4r	2ccc\
.	.	.	16c/JJ	.	.	.	.	.	.
8C/	.	8c\	8r	.	16ccT\LL	.	.	.	.
.	.	.	.	.	32bn\L	.	.	.	.
.	.	.	.	.	32cc\JJJ	.	.	.	.
8E/	.	8g\	16ccT\LL	.	8r	.	.	4cc\	.
.	.	.	32bn\L	.	.	.	.	.	.
.	.	.	32cc\JJJ	.	.	.	.	.	.
8E/J	.	8g\J	8r	.	(16ggT\LL	.	.	.	.
.	.	.	.	.	32ff\L	.	.	.	.
.	.	.	.	.	32gg\JJJ)	.	.	.	.
!	!	!	!LO:LB:g=original	!	!	!	!	!	!LO:LB:g=original
=26	=26	=26	=26	=26	=26	=26	=26	=26	=26
!	!	!	!LO:N:vis=4.	!	!	!	!	!	!
8F\L	.	8a\L	16ddT\LL	.	8r	2c/	2cc\	2dd\	4ccc\
.	.	.	32cc\L	.	.	.	.	.	.
.	.	.	32dd\JJJ	.	.	.	.	.	.
8F\	.	8a\	8r	.	(16aat\LL	.	.	.	.
.	.	.	.	.	32gg\L	.	.	.	.
.	.	.	.	.	32aa\JJJ)	.	.	.	.
8G\	.	8g\	16ddT\LL	.	8r	.	.	.	4bb-\
.	.	.	32cc\L	.	.	.	.	.	.
.	.	.	32dd\JJJ	.	.	.	.	.	.
8G\J	.	8g\J	8r	.	(16gg\LL	.	.	.	.
.	.	.	.	.	32ff\L	.	.	.	.
.	.	.	.	.	32gg\JJJ)	.	.	.	.
!	!	!	!	!	!	!	!	!LO:LB:g=original	!
=27	=27	=27	=27	=27	=27	=27	=27	=27	=27
8E\L	.	8g\L	16ccT\LL	.	8r	2c/	2cc\	2cc\	4bb-\
.	.	.	32bn\L	.	.	.	.	.	.
.	.	.	32cc\JJJ	.	.	.	.	.	.
8E\	.	8g\	8r	.	(16ggT\LL	.	.	.	.
.	.	.	.	.	32ff\L	.	.	.	.
.	.	.	.	.	32gg\JJJ)	.	.	.	.
8F\	.	8f\	16ccT\LL	.	8r	.	.	.	4aa\
.	.	.	32bn\L	.	.	.	.	.	.
.	.	.	32cc\JJJ	.	.	.	.	.	.
8F\J	.	8f\J	8r	.	(16ffT\LL	.	.	.	.
.	.	.	.	.	32ee\L	.	.	.	.
.	.	.	.	.	32ff\JJJ)	.	.	.	.
=28	=28	=28	=28	=28	=28	=28	=28	=28	=28
8D\L	.	8f\L	16b-/LL	.	8r	2c/	2cc\	2b-\	4aa\
.	.	.	32a/L	.	.	.	.	.	.
.	.	.	32b-/JJJ	.	.	.	.	.	.
8D\	.	8f\	8r	.	(16ffT\LL	.	.	.	.
.	.	.	.	.	32ee\L	.	.	.	.
.	.	.	.	.	32ff\JJJ)	.	.	.	.
8E\	.	8e\	16b-/LL	.	8r	.	.	.	4gg\
.	.	.	32a/L	.	.	.	.	.	.
.	.	.	32b-/JJJ	.	.	.	.	.	.
8E\J	.	8e\J	8r	.	(16eet\LL	.	.	.	.
.	.	.	.	.	32dd\L	.	.	.	.
.	.	.	.	.	32ee\JJJ)	.	.	.	.
!	!	!	!	!	!LO:LB:g=original	!	!	!	!
=29	=29	=29	=29	=29	=29	=29	=29	=29	=29
!	!	!	!	!	!	!	!LO:TX:a:t=3	!	!
!	!	!	!	!	!	!LO:N:vis=0	!LO:N:vis=0	!	!
8F\L	.	8f\L	16a/LL	.	8r	1r	1r	2a/	4gg\
.	.	.	32g/L	.	.	.	.	.	.
.	.	.	32a/JJJ	.	.	.	.	.	.
8F\	.	8f\	8r	.	16ff\LL	.	.	.	.
.	.	.	.	.	32ee\L	.	.	.	.
.	.	.	.	.	32ff\JJJ	.	.	.	.
8A\	.	8d\	16a/LL	.	8r	.	.	.	4ff\
.	.	.	32g/L	.	.	.	.	.	.
.	.	.	32a/JJJ	.	.	.	.	.	.
8A\J	.	8d\J	8r	.	16dd\LL	.	.	.	.
.	.	.	.	.	32cc\L	.	.	.	.
.	.	.	.	.	32dd\JJJ	.	.	.	.
=30	=30	=30	=30	=30	=30	=30	=30	=30	=30
8Bn\L	.	8d\L	16g/LL	.	8r	.	.	2g/	4ff\
.	.	.	32f/L	.	.	.	.	.	.
.	.	.	32g/JJJ	.	.	.	.	.	.
8B\	.	8d\	8r	.	16dd\LL	.	.	.	.
.	.	.	.	.	32cc\L	.	.	.	.
.	.	.	.	.	32dd\JJJ	.	.	.	.
8c#X\	.	8c#X\	16g/LL	.	8r	.	.	.	4ee\
.	.	.	32f/L	.	.	.	.	.	.
.	.	.	32g/JJJ	.	.	.	.	.	.
8c#\J	.	8c#\J	8r	.	16cc#X\LL	.	.	.	.
.	.	.	.	.	32b-\L	.	.	.	.
.	.	.	.	.	32cc#\JJJ	.	.	.	.
!LO:LB:g=original	!	!LO:LB:g=original	!	!	!	!	!	!	!
=31	=31	=31	=31	=31	=31	=31	=31	=31	=31
8d\L	.	8d\L	16f/LL	.	8r	2r	2r	2f/	4ee\
.	.	.	32e/L	.	.	.	.	.	.
.	.	.	32f/JJJ	.	.	.	.	.	.
8d\	.	8d\	8r	.	16ddT\LL	.	.	.	.
.	.	.	.	.	32cc\L	.	.	.	.
.	.	.	.	.	32dd\JJJ	.	.	.	.
8G\	.	8Bn\	16f/LL	.	8r	.	.	.	4dd\
.	.	.	32e/L	.	.	.	.	.	.
.	.	.	32f/JJJ	.	.	.	.	.	.
8G\J	.	8B\J	8r	.	16bnt\LL	.	.	.	.
.	.	.	.	.	32a\L	.	.	.	.
.	.	.	.	.	32b\JJJ	.	.	.	.
!	!	!	!LO:LB:g=original	!	!	!	!	!	!
=32	=32	=32	=32	=32	=32	=32	=32	=32	=32
!LO:TX:a:t=problem:mixed beam	!	!	!	!	!	!	!	!	!
8c\L	.	4cn\	4G/ 4e	.	4cc\	8r	8r	4cc\	4ee\
8C/J	.	.	.	.	.	16e/LL	16cc\LL	.	.
.	.	.	.	.	.	16e/JJ	16cc\JJ	.	.
16c\LL	.	4r	4r	.	4r	4e/	4cc\	4r	4r
16B-X\	.	.	.	.	.	.	.	.	.
16A\	.	.	.	.	.	.	.	.	.
16G\JJ	.	.	.	.	.	.	.	.	.
=33	=33	=33	=33	=33	=33	=33	=33	=33	=33
!	!	!	!	!	!	!	!LO:TX:a:t=8	!LO:N:vis=00	!LO:N:vis=00
!	!	!	!	!	!	!LO:N:vis=00	!LO:N:vis=00	!	!
8FT\L	.	8r	16cc/LL	.	16cc\LL	0r	0r	0r	0r
.	.	.	16a/J	.	16a\J	.	.	.	.
16F\L	.	8f\	8f/J	.	8f\J	.	.	.	.
16G\JJ	.	.	.	.	.	.	.	.	.
8A\L	.	8f\L	8r	.	8r	.	.	.	.
8B-\J	.	8f\J	8dd\	.	8dd\	.	.	.	.
=34	=34	=34	=34	=34	=34	=34	=34	=34	=34
*	*	*tremolo	*	*	*	*	*	*	*
8A\L	.	8f\L	16cc/LL	.	16cc\LL	.	.	.	.
.	.	.	16a/J	.	16a\J	.	.	.	.
16A\L	.	8f\	8f/J	.	8f\J	.	.	.	.
16G\JJ	.	.	.	.	.	.	.	.	.
8A\L	.	8f\	8r	.	8r	.	.	.	.
.	.	.	.	.	.	.	.	.	.
8B-\J	.	8f\J	16ff\LL	.	16ff\LL	.	.	.	.
.	.	.	16dd\JJ	.	16dd\JJ	.	.	.	.
=35	=35	=35	=35	=35	=35	=35	=35	=35	=35
8A\L	.	8f\L	8cc\L	.	8cc\L	.	.	.	.
8B-\	.	8f\	16ff\L	.	16ff\L	.	.	.	.
.	.	.	16dd\JJ	.	16dd\JJ	.	.	.	.
8A\	.	8f\	8cc\L	.	8cc\L	.	.	.	.
8B-\J	.	8f\J	16ff\L	.	16ff\L	.	.	.	.
.	.	.	16dd\JJ	.	16dd\JJ	.	.	.	.
*	*	*Xtremolo	*	*	*	*	*	*	*
=36	=36	=36	=36	=36	=36	=36	=36	=36	=36
!	!	!	!	!	!LO:TX:a:t=problem:mixed beam	!	!	!	!
4A\	.	4f\	16cc/LL	.	16cc\LL	.	.	.	.
.	.	.	16a/J	.	16a\	.	.	.	.
.	.	.	8f/J	.	16f/	.	.	.	.
.	.	.	.	.	16aa\JJ	.	.	.	.
4F\	.	4f\	8r	.	8gg\	.	.	.	.
.	.	.	8bn/	.	8r	.	.	.	.
=37	=37	=37	=37	=37	=37	=37	=37	=37	=37
!	!	!	!	!	!	!LO:N:vis=00	!LO:N:vis=00	!LO:N:vis=0	!LO:N:vis=0
4E\	.	4e\	4cc\	.	8r	0r	0r	1r	1r
.	.	.	.	.	8ff\L	.	.	.	.
4D\	.	4d\	8r	.	8ee\J	.	.	.	.
.	.	.	8g#X/	.	8r	.	.	.	.
!LO:LB:g=original	!	!	!	!	!	!	!	!	!
=38	=38	=38	=38	=38	=38	=38	=38	=38	=38
4C/	.	4c/	4a/	.	8r	.	.	.	.
.	.	.	.	.	8dd\L	.	.	.	.
4BB-/	.	4B-/	8r	.	8cc\J	.	.	.	.
.	.	.	(8e/	.	8r	.	.	.	.
!	!	!LO:LB:g=original	!	!	!LO:LB:g=original	!	!	!	!
=39	=39	=39	=39	=39	=39	=39	=39	=39	=39
4AA/	.	4A/	4f/)	.	8a\L	.	.	2r	2r
.	.	.	.	.	8cc\J	.	.	.	.
8GG/L	.	8A/L	16b-/LL	.	16b-/LL	.	.	.	.
.	.	.	16g/	.	16g/	.	.	.	.
8CC/J	.	8C/J	16e/	.	16e/	.	.	.	.
.	.	.	16B-/JJ	.	16B-/JJ	.	.	.	.
=40	=40	=40	=40	=40	=40	=40	=40	=40	=40
!LO:TX:a:t=problem:mixed beam	!	!LO:TX:a:t=problem:mixed beam	!	!	!	!	!	!	!
8FF/L	.	8F/L	8B-/L	.	8B-/L	.	.	4r	4r
8F\	.	8f\	8A/J	.	8A/J	.	.	.	.
8FF/J	.	8F/J	8r	.	8r	.	.	8r	8r
8r	.	8r	8c/	.	8c/	.	.	8cc\	8cc\
=41	=41	=41	=41	=41	=41	=41	=41	=41	=41
4F\	.	16c/LL	8.A/L	.	8.f/L	4cc\	4cc\	8.a\L	8.ff\L
.	.	16c/	.	.	.	.	.	.	.
.	.	16c/	.	.	.	.	.	.	.
.	.	16c/JJ	16c/K	.	16g/K	.	.	16cc\K	16gg\K
*	*	*tremolo	*	*	*	*	*	*	*
4r	.	16c/L	8f/	.	8a/	4r	4r	8ff\	8aa\
.	.	16c/	.	.	.	.	.	.	.
.	.	16c/	8f/J	.	8a/J	.	.	8ff\J	8aa\J
.	.	16c/J	.	.	.	.	.	.	.
=42	=42	=42	=42	=42	=42	=42	=42	=42	=42
*	*	*	*	*	*	*2\right	*2\right	*	*
8r	.	16c/L	4f/	.	4a/	2cc\	2cc\	4ff\	4aa\
.	.	16c/	.	.	.	.	.	.	.
8c\	.	16c/	.	.	.	.	.	.	.
.	.	16c/J	.	.	.	.	.	.	.
4C/	.	16c/L	8e/L	.	8g/L	.	.	8ee\L	8gg\L
.	.	16c/	.	.	.	.	.	.	.
.	.	16c/	8c/J	.	8c/J	.	.	8cc\J	8cc\J
.	.	16c/J	.	.	.	.	.	.	.
!	!	!	!LO:LB:g=original	!	!	!	!	!	!LO:LB:g=original
=43	=43	=43	=43	=43	=43	=43	=43	=43	=43
4C/	.	16c/L	8.e/L	.	8.g/L	2cc\	2cc\	8.ee\L	8.gg\L
.	.	16c/	.	.	.	.	.	.	.
.	.	16c/	.	.	.	.	.	.	.
.	.	16c/J	16f/K	.	16a/K	.	.	16ff\K	16aa\K
4r	.	16c/L	8g/	.	8b-/	.	.	8gg\	8bb-\
.	.	16c/	.	.	.	.	.	.	.
.	.	16c/	8g/J	.	8b-/J	.	.	8gg\J	8bb-\J
.	.	16c/J	.	.	.	.	.	.	.
!	!	!	!	!	!	!	!	!LO:LB:g=original	!
=44	=44	=44	=44	=44	=44	=44	=44	=44	=44
8r	.	16c/L	4g/	.	4b-\	2cc\	2cc\	4gg\	4bb-\
.	.	16c/	.	.	.	.	.	.	.
8F\	.	16c/	.	.	.	.	.	.	.
.	.	16c/J	.	.	.	.	.	.	.
4FF/	.	16c/L	8f/L	.	8a\L	.	.	8ff\L	8aa\L
.	.	16c/	.	.	.	.	.	.	.
.	.	16c/	8cc/J	.	8ff\J	.	.	8a\J	8cc\J
.	.	16c/J	.	.	.	.	.	.	.
!	!	!	!	!	!	!LO:LB:g=original	!	!	!
=45	=45	=45	=45	=45	=45	=45	=45	=45	=45
4F\	.	16f\L	8.ff\L	.	8.aa\L	2cc\	2cc\	8.f/L	8.a/L
.	.	16f\	.	.	.	.	.	.	.
.	.	16f\	.	.	.	.	.	.	.
.	.	16f\J	16gg\K	.	16bb-\K	.	.	16g/K	16b-/K
4r	.	16f\L	8aa\	.	8ccc\	.	.	8a/	8cc/
.	.	16f\	.	.	.	.	.	.	.
.	.	16f\	8aa\J	.	8ccc\J	.	.	8a/J	8cc/J
.	.	16f\J	.	.	.	.	.	.	.
=46	=46	=46	=46	=46	=46	=46	=46	=46	=46
!	!	!	!	!	!	!LO:TX:a:t=1	!	!	!
4F\	.	4f\	4aa\	.	4ccc\	2r	2r	4a/	4cc\
4r	.	4r	(16ddd\LL	.	16fff\LL	.	.	16dd\LL	(16ff\LL
.	.	.	16ccc\	.	16eee\	.	.	16cc\	16ee\
.	.	.	16bb-\	.	16ddd\	.	.	16b-\	16dd\
.	.	.	16aa\JJ)	.	16ccc\JJ	.	.	16a\JJ	16cc\JJ)
!	!	!LO:LB:g=originalk	!	!	!	!	!LO::g=original	!	!
=47	=47	=47	=47	=47	=47	=47	=47	=47	=47
.	.	.	8qqaa/	.	8qqccc/	.	.	8qqa/	8qqcc/
4BB-T/	.	4B-/	8gg\	.	8bb-\	4r	4r	8g/	8b-/
.	.	.	4ff\	.	4aa\	.	.	4f/	4a/
4C/	.	4c/	.	.	.	4cc\	4cc\	.	.
.	.	.	8ee\	.	8gg\	.	.	8e/	8g/
!LO:LB:g=original	!	!	!	!	!	!	!	!	!
=48	=48	=48	=48	=48	=48	=48	=48	=48	=48
*	*	*Xtremolo	*	*	*	*	*	*	*
.	.	.	8qqee/	.	.	.	.	.	.
4F\	.	16f\LL	8ff\	.	8aa\	4cc\	4cc\	4f/	4f/
.	.	16f\	.	.	.	.	.	.	.
!	!	!	!LO:N:vis=8	!	!	!	!	!	!
.	.	16f\	4r	.	8r	.	.	.	.
.	.	16f\JJ	.	.	.	.	.	.	.
*	*	*tremolo	*	*	*	*	*	*	*
4r	.	16f\L	.	.	8r	4r	4r	8r	4r
.	.	16f\	.	.	.	.	.	.	.
.	.	16f\	8f/	.	8f/	.	.	8f/	.
.	.	16f\J	.	.	.	.	.	.	.
=49	=49	=49	=49	=49	=49	=49	=49	=49	=49
!	!	!	!	!	!	!LO:N:vis=0	!LO:N:vis=0	!	!
4F\	.	16f\L	8.A/L	.	8.c/L	1r	1r	8.a\L	8.cc\L
.	.	16f\	.	.	.	.	.	.	.
.	.	16f\	.	.	.	.	.	.	.
.	.	16f\J	16B-/K	.	16d/K	.	.	16b-\K	16dd\K
4r	.	16f\L	8c/	.	8e-X/	.	.	8cc\	8ee-X\
.	.	16f\	.	.	.	.	.	.	.
.	.	16f\	8c/J	.	8e-/J	.	.	8cc\J	8ee-\J
.	.	16f\J	.	.	.	.	.	.	.
=50	=50	=50	=50	=50	=50	=50	=50	=50	=50
8r	.	16f\L	4c/	.	4e-X/	.	.	4cc\	4ee\
.	.	16f\	.	.	.	.	.	.	.
8B-\	.	16f\	.	.	.	.	.	.	.
.	.	16f\J	.	.	.	.	.	.	.
4BB-/	.	8f\	8B-/L	.	8d/L	.	.	8b-/L	8dd\L
.	.	8r	8g/J	.	8g/J	.	.	8g/J	8gg\J
!	!	!	!	!	!LO:LB:g=original	!	!	!	!
=51	=51	=51	=51	=51	=51	=51	=51	=51	=51
4G\	.	16g\L	8.Bn/L	.	8.d/L	4g/	4dd\	8.bn\L	8.dd\L
.	.	16g\	.	.	.	.	.	.	.
.	.	16g\	.	.	.	.	.	.	.
.	.	16g\J	16c/K	.	16en/K	.	.	16cc\K	16een\K
4r	.	16g\L	8d/	.	8f/	8g/L	8dd\L	8dd\	8ff\
.	.	16g\	.	.	.	.	.	.	.
.	.	16g\	8d/J	.	8f/J	8g/J	8dd\J	8dd\J	8ff\J
.	.	16g\J	.	.	.	.	.	.	.
!	!	!	!	!	!	!	!	!LO:LB:g=original	!LO:LB:g=original
=52	=52	=52	=52	=52	=52	=52	=52	=52	=52
8r	.	16g\L	4d/	.	4f/	4g/	4dd\	4dd\	4ff\
.	.	16g\	.	.	.	.	.	.	.
8c\	.	16g\	.	.	.	.	.	.	.
.	.	16g\J	.	.	.	.	.	.	.
4C/	.	16g\L	8c/L	.	4e/	8cc\	8ee\	8cc\L	8ee\L
.	.	16g\	.	.	.	.	.	.	.
.	.	16g\	8c/J	.	.	8r	8r	8cc\J	8dd\J
.	.	16g\J	.	.	.	.	.	.	.
=53	=53	=53	=53	=53	=53	=53	=53	=53	=53
4F\	.	16f\L	8.ff\L	.	8.aa\L	2cc\	2cc\	8.f/L	8.a/L
.	.	16f\	.	.	.	.	.	.	.
.	.	16f\	.	.	.	.	.	.	.
.	.	16f\J	16gg\K	.	16bb-\K	.	.	16g/K	16b-/K
4r	.	16f\L	8aa\	.	8ccc\	.	.	8a/	8cc/
.	.	16f\	.	.	.	.	.	.	.
.	.	16f\	8aa\J	.	8ccc\J	.	.	8a/J	8cc/J
.	.	16f\J	.	.	.	.	.	.	.
=54	=54	=54	=54	=54	=54	=54	=54	=54	=54
.	.	.	.	.	.	.	.	.	8qqdd/
4F\	.	16f\L	4aa\	.	4ccc\	2cc\	2cc\	4a/	4cc\
.	.	16f\	.	.	.	.	.	.	.
.	.	16f\	.	.	.	.	.	.	.
.	.	16f\J	.	.	.	.	.	.	.
4r	.	16f\L	16ddd\LL	.	16fff\LL	.	.	16dd\LL	16ff\LL
.	.	16f\	16ccc\	.	16eee\	.	.	16cc\	16ee\
.	.	16f\	16bb-\	.	16ddd\	.	.	16b-\	16dd\
.	.	16f\J	16aa\JJ	.	16ccc\JJ	.	.	16a\JJ	16cc\JJ
*	*	*Xtremolo	*	*	*	*	*	*	*
=55	=55	=55	=55	=55	=55	=55	=55	=55	=55
.	.	.	8qqaa/	.	8qqccc/	.	.	8qqa/	8qqcc/
4B-\	.	4B-/	8gg\	.	8bb-\	4r	4r	8g/	8b-/
.	.	.	4ff\	.	4aa\	.	.	4f/	4a/
4c\	.	4c/	.	.	.	4cc\	4cc\	.	.
.	.	.	8ee\	.	8gg\	.	.	8e/	8g/
!	!	!cLO:LB:g=original	!LO:LB:g=original	!	!	!	!	!	!
=56	=56	=56	=56	=56	=56	=56	=56	=56	=56
.	.	.	.	.	.	.	.	.	.
!	!	!	!LO:TX:a:t=problem:mixed beam	!	!LO:TX:a:t=problem:mixed beam	!	!	!	!
4F\	.	4f\	8ff\L	.	8aa\L	4cc\	4cc\	4f/	4f/
!	!	!	!	!	!LO:TUP:b	!	!	!	!
!	!	!	!LO:TX:a:t=problem:brak oznaczenia trioli	!	!LO:TX:A:t=problem:triola pod klamrą łukową	!	!	!	!
.	.	.	(24f/L	.	24a/L	.	.	.	.
.	.	.	24g/	.	24b-/	.	.	.	.
.	.	.	24a/JJ)	.	24cc/JJ	.	.	.	.
*	*	*	*	*	*Xtuplet	*	*	*	*
4r	.	4r	24b-'\LL	.	24dd\LL	4r	4r	4r	4r
.	.	.	24cc'\	.	24ee\	.	.	.	.
.	.	.	24dd'\JJ	.	24ff\JJ	.	.	.	.
.	.	.	24ee'\LL	.	24gg\LL	.	.	.	.
.	.	.	24ff'\	.	24aa\	.	.	.	.
.	.	.	24gg'\JJ	.	24bb-\JJ	.	.	.	.
=57	=57	=57	=57	=57	=57	=57	=57	=57	=57
!	!	!	!LO:TX:a:t=problem:mixed beam	!	!LO:TX:a:t=problem:mixed beam	!	!	!	!
2r	.	2r	8aa\L	.	8ccc\L	4r	4r	8r	8r
.	.	.	8B-/	.	8B-/	.	.	16b-/LL	16dd\LL
.	.	.	.	.	.	.	.	16g/JJ	16b-\JJ
.	.	.	8c/	.	8c/	4cc\	4cc\	8f/L	8a/L
.	.	.	8c/J	.	8c/J	.	.	8e/J	8g/J
=58	=58	=58	=58	=58	=58	=58	=58	=58	=58
*	*	*	*	*	*tuplet	*	*	*	*
4F\	.	4f\	8f/L	.	8f/L	4cc\	4cc\	4f/	4a/
!	!	!	!LO:TX:a:t=problem:brak oznaczenia trioli	!	!LO:TUP:b	!	!	!	!
.	.	.	24f/L	.	24a/L	.	.	.	.
.	.	.	24g/	.	24b-/	.	.	.	.
.	.	.	24a/JJ	.	24cc/JJ	.	.	.	.
*	*	*	*	*	*Xtuplet	*	*	*	*
4r	.	4r	24b-\LL	.	24dd\LL	4r	4r	4r	4r
.	.	.	24cc\	.	24ee\	.	.	.	.
.	.	.	24dd\JJ	.	24ff\JJ	.	.	.	.
.	.	.	24ee'\LL	.	24gg\LL	.	.	.	.
.	.	.	24ff'\	.	24aa\	.	.	.	.
.	.	.	24gg'\JJ	.	24bb-\JJ	.	.	.	.
=59	=59	=59	=59	=59	=59	=59	=59	=59	=59
8r	.	8r	8aa\L	.	8ccc\L	4r	4r	16r	16r
.	.	.	.	.	.	.	.	16b-/LL	(16dd\LL
!LO:TX:a:t=problem:mixed beam	!	!	!LO:TX:a:t=problem:brak oznaczenia trioli	!	!	!	!	!LO:TX:a:t=problem:oznaczenie fermaty lub klamra łukowa	!
8B-\L	.	8B-/L	24bb-\L	.	24ddd\L	.	.	16a;</	16cc\
.	.	.	24aa\	.	24ccc\	.	.	.	.
.	.	.	.	.	.	.	.	16g/JJ	16b-\JJ)
.	.	.	24gg\JJ	.	24bb-\JJ	.	.	.	.
8c\	.	8c/	8ff\L	.	8aa\L	4cc\	4cc\	8f/L	8a/L
8C/J	.	8B-/J	8ee\J	.	8gg\J	.	.	8e/J	8g/J
=60	=60	=60	=60	=60	=60	=60	=60	=60	=60
!	!	!	!	!	!	!LO:TX:a:t=problem:podwójna kreska taktowa\n z lewostronną grubaśną repetycją	!LO:TX:a:t=problem:podwójna kreska taktowa\n z lewostronną grubaśną repetycją	!	!
8r	.	4B-/	4ee\	.	4gg\	2cc\	2cc\	4e/	4g/
8F\	.	.	.	.	.	.	.	.	.
!LO:TX:a:t=problem:podwójna kreska taktowa\n z lewostronną grubaśną repetycją	!	!	!	!	!	!	!	!	!
4FF/	.	8A/	8ff\	.	8ff\	.	.	8f/	8f/
!	!	!LO:TX:a:t=problem:podwójna kreska taktowa\n z lewostronną grubaśną repetycją	!LO:TX:a:t=problem:podwójna kreska taktowa\n z lewostronną grubaśną repetycją	!	!LO:TX:a:t=problem:podwójna kreska taktowa\n z lewostronną grubaśną repetycją	!	!	!LO:TX:a:t=problem:podwójna kreska taktowa\n z lewostronną grubaśną repetycją	!LO:TX:a:t=problem:podwójna kreska taktowa\n z lewostronną grubaśną repetycją
!	!	!	!	!	!	!	!	!	!LO:TX:b:t=Menuetto Tacet
.	.	8r	8r	.	8r	.	.	8r	8r
==:|!	==:|!	==:|!	==:|!	==:|!	==:|!	==:|!	==:|!	==:|!	==:|!
*-	*-	*-	*-	*-	*-	*-	*-	*-	*-
!!!system-decoration: [(g1)][(g2)][(g3)]{g4}
!!!RDF**kern: >= above
!!!RDF**kern: <= below
!!!ENC: Anna Matuszewska
!!!END: 2020-07-22
